src/images/rain.svg

<svg enable-background="new 0 0 507.5 474.6" viewBox="0 0 507.5 474.6" xmlns="http://www.w3.org/2000/svg"><g fill="#fff"><path d="m87.5 280c-48.3 0-87.5-39.2-87.5-87.5 0-46.5 36.3-84.6 82.2-87.3 13.8-60.3 67.7-105.2 132.2-105.2 37.4 0 71.3 15.2 95.8 39.7 9.8-3 20.2-4.7 31-4.7 58 0 105 47 105 105 0 3-.1 5.9-.4 8.9 34.4 2.1 61.6 30.6 61.6 65.5 0 28.2-17.8 52.2-42.7 61.5-5.6 2.6-11.9 4.1-18.5 4.1zm63.4 94.4c-10.5-6-14-19.4-8-29.9 4-7 19.8-19.7 47.4-38.3-2.3 33.2-5.5 53.2-9.5 60.2-6 10.5-19.4 14.1-29.9 8zm262.5 0c-10.5-6-14-19.4-8-29.9 4-7 19.8-19.7 47.4-38.3-2.3 33.2-5.5 53.2-9.5 60.2-6 10.5-19.4 14.1-29.9 8zm-341.2 0c-10.5-6-14-19.4-8-29.9 4-7 19.8-19.7 47.4-38.3-2.3 33.2-5.5 53.2-9.5 60.2-6.1 10.5-19.4 14.1-29.9 8zm253.7 0c-10.5-6-14-19.4-8-29.9 4-7 19.8-19.7 47.4-38.3-2.3 33.2-5.5 53.2-9.5 60.2-6 10.5-19.4 14.1-29.9 8zm-236.2 87.5c-10.5-6-14-19.4-8-29.9 4-7 19.8-19.7 47.4-38.3-2.3 33.2-5.5 53.2-9.5 60.2-6.1 10.5-19.4 14.1-29.9 8zm253.7 0c-10.5-6-14-19.4-8-29.9 4-7 19.8-19.7 47.4-38.3-2.3 33.2-5.5 53.2-9.5 60.2-6 10.5-19.4 14.1-29.9 8z"/><path d="m231.4 315h58.9l-21.4 59.4 21.4-.4-80.3 100.6 22.6-100.2h-20.8z"/></g></svg>

<?xml version="1.0" encoding="utf-8"?>
<!-- Generator: Adobe Illustrator 26.1.0, SVG Export Plug-In . SVG Version: 6.00 Build 0)  -->
<svg version="1.1" id="Layer_1" xmlns="http://www.w3.org/2000/svg" xmlns:xlink="http://www.w3.org/1999/xlink" x="0px" y="0px"
	 viewBox="0 0 507.5 474.6" style="enable-background:new 0 0 507.5 474.6;" xml:space="preserve">
<style type="text/css">
	.st0{fill:#FFFFFF;}
</style>
<g>
	<path class="st0" d="M87.5,280C39.2,280,0,240.8,0,192.5c0-46.5,36.3-84.6,82.2-87.3C96,44.9,149.9,0,214.4,0
		c37.4,0,71.3,15.2,95.8,39.7c9.8-3,20.2-4.7,31-4.7c58,0,105,47,105,105c0,3-0.1,5.9-0.4,8.9c34.4,2.1,61.6,30.6,61.6,65.5
		c0,28.2-17.8,52.2-42.7,61.5c-5.6,2.6-11.9,4.1-18.5,4.1L87.5,280z M150.9,374.4c-10.5-6-14-19.4-8-29.9c4-7,19.8-19.7,47.4-38.3
		c-2.3,33.2-5.5,53.2-9.5,60.2C174.8,376.9,161.4,380.5,150.9,374.4L150.9,374.4z M413.4,374.4c-10.5-6-14-19.4-8-29.9
		c4-7,19.8-19.7,47.4-38.3c-2.3,33.2-5.5,53.2-9.5,60.2C437.3,376.9,423.9,380.5,413.4,374.4L413.4,374.4z M72.2,374.4
		c-10.5-6-14-19.4-8-29.9c4-7,19.8-19.7,47.4-38.3c-2.3,33.2-5.5,53.2-9.5,60.2C96,376.9,82.7,380.5,72.2,374.4L72.2,374.4z
		 M325.9,374.4c-10.5-6-14-19.4-8-29.9c4-7,19.8-19.7,47.4-38.3c-2.3,33.2-5.5,53.2-9.5,60.2C349.8,376.9,336.4,380.5,325.9,374.4
		L325.9,374.4z M89.7,461.9c-10.5-6-14-19.4-8-29.9c4-7,19.8-19.7,47.4-38.3c-2.3,33.2-5.5,53.2-9.5,60.2
		C113.5,464.4,100.2,468,89.7,461.9L89.7,461.9z M343.4,461.9c-10.5-6-14-19.4-8-29.9c4-7,19.8-19.7,47.4-38.3
		c-2.3,33.2-5.5,53.2-9.5,60.2C367.3,464.4,353.9,468,343.4,461.9L343.4,461.9z"/>
	<path class="st0" d="M231.4,315h58.9l-21.4,59.4l21.4-0.4L210,474.6l22.6-100.2h-20.8L231.4,315z"/>
</g>
</svg>
